X:1
T: The Countess of Rothes's Strathspey
C:R. Mackintosh
R:Strathspey
Q: 128
K:F
M:4/4
L:1/16
|:A2|Fc3 c3B Af3 f3c|Gd3 d3c Bd3 d3f|Fc3 c3B Af3 f3c|d3e f3g a2f2 f2A2|
Fc3 c3B Af3 f3c|Gd3 d3c Bd3 d3f|Fc3 c3B Af3 f3c|d3e f3g a2f2 f2F2|
C3F AF3 cF3 dF3|cF3 AF3 BG3 G3A|FEFG AF3 cF3 dF3|cf3 A3G AF3 F3A|
C3F A3F cF3 dF3|cF3 AF3 BG3 G3B|Af3 cA3 Bf3 dB3|efg2 c3b a2f2 f2:|
